X: 39871
T: This Is My Love, Do You Like Her?
R: jig
M: 6/8
K: Eminor
M:12/8
|:G2 F|E2 E EDE G3 GAB|A2 A AGA d3 dBd|
e2 e edB d2 d dBG|A2 A AFD E3:|
|:Bcd|e2 e edB d2 d dBd|e2 e edB A3 ABd|
e2 e edB d2 d dBG|A2 A AFD E3:|

